X: 19742
T: Jenny Picking Cockles
R: reel
M: 4/4
K: Dmixolydian
|:d3c A3G|FGAB c2Ac|d3c AGEF|(FG)cE EDD2|
d3c A3G|FGAB c2cd|eddc AGEF|(FG)cE EDD2:|
|:f2fd efed|^cA~A2 cAAd|f3d ed^cd|eaag edde|
f2fd efed|^cAAB =c3d|eddc AGEF|(FG)cE EDD2:|

